;FLAVOR:Marlin
;TIME:1900
;Filament used: 0.740691m
;Layer height: 0.2
;MINX:95.767
;MINY:97.449
;MINZ:0.2
;MAXX:123.963
;MAXY:126.151
;MAXZ:47.2
;TARGET_MACHINE.NAME:Creality Ender-3 Pro
;Generated with Cura_SteamEngine 5.9.0
M82 ;absolute extrusion mode
; Ender 3 Custom Start G-code
G92 E0 ; Reset Extruder
G28 ; Home all axes
G1 Z5.0 F3000 ; Move Z Axis up a bit during heating to not damage bed
M104 S175 ; Start heating up the nozzle most of the way
M190 S60 ; Start heating the bed, wait until target temperature reached
M109 S200 ; Finish heating the nozzle
G1 Z2.0 F3000 ; Move Z Axis up little to prevent scratching of Heat Bed
G1 X0.1 Y20 Z0.3 F5000.0 ; Move to start position
G1 X0.1 Y200.0 Z0.3 F1500.0 E15 ; Draw the first line
G1 X0.4 Y200.0 Z0.3 F5000.0 ; Move to side a little
G1 X0.4 Y20 Z0.3 F1500.0 E30 ; Draw the second line
G92 E0 ; Reset Extruder
G1 Z2.0 F3000 ; Move Z Axis up little to prevent scratching of Heat Bed
G1 X5 Y20 Z0.3 F5000.0 ; Move over to prevent blob squish
G92 E0
G92 E0
G1 F1500 E-6.5
;LAYER_COUNT:236
;LAYER:0
M107
G0 F6000 X111.521 Y126.028 Z0.2
;TYPE:SKIRT
G1 F1500 E0
G1 F1200 X110.589 Y126.13 E0.03118
G1 X109.65 Y126.151 E0.06242
G1 X108.179 Y126.024 E0.11153
G1 X107.41 Y125.9 E0.13744
G1 X106.853 Y125.797 E0.15628
G1 X105.939 Y125.582 E0.18751
G1 X104.97 Y125.261 E0.22146
G1 X103.841 Y124.755 E0.26261
G1 X103.115 Y124.37 E0.28994
G1 X102.597 Y124.074 E0.30978
G1 X101.76 Y123.542 E0.34277
G1 X101.011 Y122.97 E0.37412
G1 X100.143 Y122.165 E0.41349
G1 X99.657 Y121.66 E0.4368
G1 X99.143 Y121.096 E0.46218
G1 X98.526 Y120.342 E0.49459
G1 X97.977 Y119.533 E0.5271
G1 X97.475 Y118.624 E0.56164
G1 X97.129 Y117.908 E0.58809
G1 X96.893 Y117.386 E0.60714
G1 X96.533 Y116.483 E0.63948
G1 X96.272 Y115.619 E0.6695
G1 X96.079 Y114.712 E0.70034
G1 X95.947 Y113.937 E0.72649
G1 X95.846 Y113.229 E0.75027
G1 X95.767 Y112.294 E0.78148
G1 X95.769 Y111.321 E0.81384
G1 X95.845 Y110.438 E0.84332
G1 X95.935 Y109.745 E0.86656
G1 X96.048 Y108.998 E0.89169
G1 X96.248 Y108.045 E0.92408
G1 X96.527 Y107.12 E0.95621
G1 X96.808 Y106.399 E0.98195
G1 X97.117 Y105.715 E1.00691
G1 X97.48 Y104.972 E1.03442
G1 X97.948 Y104.119 E1.06678
G1 X98.47 Y103.337 E1.09805
G1 X99.129 Y102.52 E1.13296
G1 X99.685 Y101.904 E1.16056
G1 X100.09 Y101.482 E1.18002
G1 X100.81 Y100.799 E1.21302
G1 X101.578 Y100.19 E1.24562
G1 X102.513 Y99.584 E1.28268
G1 X103.14 Y99.224 E1.30673
G1 X103.803 Y98.866 E1.33179
G1 X104.652 Y98.468 E1.36298
G1 X105.532 Y98.143 E1.39418
G1 X106.791 Y97.818 E1.43743
G1 X107.582 Y97.671 E1.46419
G1 X108.199 Y97.574 E1.48496
G1 X109.166 Y97.47 E1.51731
G1 X110.069 Y97.449 E1.54735
G1 X111.067 Y97.513 E1.58061
G1 X111.575 Y97.58 E1.59765
G1 X112.341 Y97.706 E1.62347
G1 X112.887 Y97.808 E1.64195
G1 X113.835 Y98.032 E1.67435
G1 X114.732 Y98.329 E1.70577
G1 X115.941 Y98.872 E1.74985
G1 X116.625 Y99.238 E1.77566
G1 X117.136 Y99.53 E1.79523
G1 X117.957 Y100.05 E1.82755
G1 X118.676 Y100.596 E1.85758
G1 X119.566 Y101.419 E1.8979
G1 X120.079 Y101.947 E1.92239
G1 X120.562 Y102.473 E1.94614
G1 X121.163 Y103.205 E1.97764
G1 X121.754 Y104.071 E2.01251
G1 X122.251 Y104.971 E2.0467
G1 X122.587 Y105.666 E2.07238
G1 X122.835 Y106.215 E2.09242
G1 X123.196 Y107.121 E2.12485
G1 X123.472 Y108.049 E2.15706
G1 X123.648 Y108.881 E2.18534
G1 X123.787 Y109.697 E2.21287
G1 X123.884 Y110.38 E2.23582
G1 X123.963 Y111.348 E2.26812
G1 X123.96 Y112.284 E2.29925
G1 X123.884 Y113.161 E2.32853
G1 X123.789 Y113.896 E2.35318
G1 X123.677 Y114.617 E2.37745
G1 X123.475 Y115.57 E2.40985
G1 X123.2 Y116.464 E2.44096
G1 X122.869 Y117.291 E2.47058
G1 X122.539 Y118.029 E2.49747
G1 X122.243 Y118.647 E2.52026
G1 X121.773 Y119.499 E2.55263
G1 X121.25 Y120.28 E2.58389
G1 X120.561 Y121.127 E2.6202
G1 X120.031 Y121.708 E2.64636
G1 X119.636 Y122.122 E2.66539
G1 X118.984 Y122.747 E2.69543
G1 X118.161 Y123.405 E2.73048
G1 X117.227 Y124.011 E2.76751
G1 X116.567 Y124.39 E2.79282
G1 X115.92 Y124.739 E2.81727
G1 X115.07 Y125.138 E2.84851
G1 X114.151 Y125.475 E2.88106
G1 X112.957 Y125.781 E2.92206
G1 X112.141 Y125.931 E2.94965
G1 X111.521 Y126.028 E2.97052
G0 F6000 X112.079 Y125.536
G1 F1200 X111.477 Y125.63 E2.99079
G1 X110.58 Y125.73 E3.02081
G1 X109.641 Y125.751 E3.05205
G1 X108.242 Y125.629 E3.09876
G1 X107.483 Y125.507 E3.12432
G1 X106.944 Y125.407 E3.14256
G1 X106.064 Y125.202 E3.17261
G1 X105.134 Y124.896 E3.20517
G1 X104.005 Y124.39 E3.24632
G1 X103.313 Y124.022 E3.27239
G1 X102.811 Y123.736 E3.29161
G1 X102.003 Y123.224 E3.32342
G1 X101.254 Y122.652 E3.35477
G1 X100.431 Y121.887 E3.39214
G1 X99.952 Y121.39 E3.4151
G1 X99.452 Y120.842 E3.43977
G1 X98.857 Y120.117 E3.47097
G1 X98.327 Y119.339 E3.50228
G1 X97.835 Y118.45 E3.53607
G1 X97.493 Y117.743 E3.56219
G1 X97.264 Y117.238 E3.58063
G1 X96.916 Y116.367 E3.61183
G1 X96.655 Y115.503 E3.64185
G1 X96.473 Y114.645 E3.67102
G1 X96.343 Y113.88 E3.69683
G1 X96.245 Y113.194 E3.71988
G1 X96.167 Y112.294 E3.74993
G1 X96.168 Y111.355 E3.78116
G1 X96.242 Y110.489 E3.81007
G1 X96.33 Y109.805 E3.833
G1 X96.44 Y109.079 E3.85743
G1 X96.631 Y108.16 E3.88864
G1 X96.9 Y107.265 E3.91973
G1 X97.173 Y106.563 E3.94478
G1 X97.476 Y105.891 E3.9693
G1 X97.831 Y105.164 E3.99621
G1 X98.281 Y104.341 E4.0274
G1 X98.803 Y103.559 E4.05868
G1 X99.426 Y102.788 E4.09164
G1 X99.974 Y102.181 E4.11884
G1 X100.366 Y101.772 E4.13769
G1 X101.059 Y101.112 E4.16952
G1 X101.796 Y100.526 E4.20083
G1 X102.731 Y99.92 E4.23789
G1 X103.33 Y99.576 E4.26087
G1 X103.974 Y99.228 E4.28521
G1 X104.791 Y98.843 E4.31525
G1 X105.671 Y98.518 E4.34645
G1 X106.864 Y98.211 E4.38743
G1 X107.644 Y98.066 E4.41381
G1 X108.243 Y97.972 E4.43398
G1 X109.175 Y97.87 E4.46516
G1 X110.078 Y97.849 E4.49521
G1 X111.015 Y97.91 E4.52644
G1 X111.51 Y97.975 E4.54304
G1 X112.268 Y98.099 E4.56859
G1 X112.795 Y98.197 E4.58642
G1 X113.709 Y98.412 E4.61765
G1 X114.606 Y98.709 E4.64907
G1 X115.752 Y99.225 E4.69087
G1 X116.427 Y99.586 E4.71633
G1 X116.922 Y99.868 E4.73528
G1 X117.715 Y100.369 E4.76648
G1 X118.434 Y100.915 E4.79651
G1 X119.279 Y101.698 E4.83482
G1 X119.784 Y102.218 E4.85893
G1 X120.267 Y102.744 E4.88269
G1 X120.854 Y103.459 E4.91345
G1 X121.404 Y104.265 E4.94591
G1 X121.891 Y105.145 E4.97936
G1 X122.223 Y105.831 E5.00471
G1 X122.464 Y106.363 E5.02413
G1 X122.813 Y107.236 E5.0554
G1 X123.081 Y108.132 E5.08651
G1 X123.254 Y108.948 E5.11425
G1 X123.391 Y109.753 E5.14141
G1 X123.485 Y110.413 E5.16359
G1 X123.563 Y111.347 E5.19476
G1 X123.561 Y112.25 E5.22479
G1 X123.487 Y113.11 E5.2535
G1 X123.394 Y113.835 E5.27781
G1 X123.286 Y114.534 E5.30134
G1 X123.092 Y115.453 E5.33258
G1 X122.828 Y116.316 E5.36259
G1 X122.504 Y117.128 E5.39167
G1 X122.178 Y117.856 E5.4182
G1 X121.892 Y118.454 E5.44025
G1 X121.44 Y119.277 E5.47148
G1 X120.939 Y120.028 E5.50151
G1 X120.265 Y120.858 E5.53707
G1 X119.742 Y121.432 E5.56289
G1 X119.359 Y121.833 E5.58134
G1 X118.707 Y122.458 E5.61138
G1 X117.943 Y123.069 E5.64392
G1 X117.009 Y123.675 E5.68095
G1 X116.377 Y124.038 E5.70519
G1 X115.749 Y124.377 E5.72892
G1 X114.932 Y124.762 E5.75896
G1 X114.013 Y125.099 E5.79152
G1 X112.858 Y125.393 E5.83116
G1 X112.079 Y125.536 E5.8575
G0 F6000 X112.017 Y125.141
G1 F1200 X111.433 Y125.232 E5.87716
G1 X110.536 Y125.332 E5.90718
G1 X109.633 Y125.351 E5.93722
G1 X108.305 Y125.234 E5.98156
G1 X107.556 Y125.114 E6.00679
G1 X107.035 Y125.017 E6.02442
G1 X106.155 Y124.812 E6.05447
G1 X105.297 Y124.531 E6.0845
G1 X104.193 Y124.037 E6.12473
G1 X103.511 Y123.674 E6.15042
G1 X103.009 Y123.388 E6.16964
G1 X102.245 Y122.906 E6.19968
G1 X101.526 Y122.359 E6.22973
G1 X100.719 Y121.609 E6.26637
G1 X100.247 Y121.12 E6.28898
G1 X99.761 Y120.588 E6.31295
G1 X99.187 Y119.891 E6.34298
G1 X98.677 Y119.145 E6.37303
G1 X98.195 Y118.275 E6.40611
G1 X97.857 Y117.578 E6.43188
G1 X97.635 Y117.089 E6.44974
G1 X97.299 Y116.251 E6.47977
G1 X97.038 Y115.387 E6.50979
G1 X96.867 Y114.578 E6.53729
G1 X96.739 Y113.823 E6.56276
G1 X96.644 Y113.159 E6.58507
G1 X96.566 Y112.259 E6.61512
G1 X96.568 Y111.356 E6.64515
G1 X96.639 Y110.54 E6.67239
G1 X96.725 Y109.865 E6.69502
G1 X96.832 Y109.16 E6.71874
G1 X97.014 Y108.275 E6.74879
G1 X97.273 Y107.41 E6.77882
G1 X97.538 Y106.727 E6.80319
G1 X97.835 Y106.066 E6.82729
G1 X98.182 Y105.355 E6.85361
G1 X98.614 Y104.562 E6.88364
G1 X99.114 Y103.81 E6.91368
G1 X99.723 Y103.056 E6.94591
G1 X100.263 Y102.458 E6.97271
G1 X100.655 Y102.049 E6.99156
G1 X101.308 Y101.425 E7.0216
G1 X102.014 Y100.862 E7.05163
G1 X102.931 Y100.267 E7.08799
G1 X103.52 Y99.928 E7.11059
G1 X104.145 Y99.59 E7.13422
G1 X104.962 Y99.205 E7.16426
G1 X105.809 Y98.893 E7.19429
G1 X106.937 Y98.604 E7.23301
G1 X107.706 Y98.461 E7.25903
G1 X108.287 Y98.37 E7.27859
G1 X109.184 Y98.27 E7.30861
G1 X110.087 Y98.249 E7.33865
G1 X110.988 Y98.309 E7.36868
G1 X111.446 Y98.37 E7.38405
G1 X112.195 Y98.492 E7.40929
G1 X112.704 Y98.587 E7.42651
G1 X113.584 Y98.792 E7.45657
G1 X114.442 Y99.074 E7.48661
G1 X115.588 Y99.59 E7.52841
G1 X116.229 Y99.934 E7.5526
G1 X116.709 Y100.207 E7.57097
G1 X117.473 Y100.688 E7.601
G1 X118.192 Y101.234 E7.63102
G1 X118.992 Y101.976 E7.66732
G1 X119.489 Y102.489 E7.69107
G1 X119.972 Y103.015 E7.71482
G1 X120.545 Y103.713 E7.74486
G1 X121.054 Y104.459 E7.7749
G1 X121.531 Y105.319 E7.80761
G1 X121.859 Y105.996 E7.83263
G1 X122.093 Y106.512 E7.85147
G1 X122.43 Y107.351 E7.88154
G1 X122.69 Y108.215 E7.91155
G1 X122.86 Y109.015 E7.93876
G1 X122.995 Y109.809 E7.96554
G1 X123.086 Y110.447 E7.98698
G1 X123.163 Y111.346 E8.01699
G1 X123.161 Y112.249 E8.04702
G1 X123.09 Y113.059 E8.07407
G1 X122.999 Y113.774 E8.09804
G1 X122.895 Y114.452 E8.12085
G1 X122.709 Y115.336 E8.1509
G1 X122.445 Y116.199 E8.18092
G1 X122.139 Y116.965 E8.20835
G1 X121.817 Y117.684 E8.23455
G1 X121.541 Y118.262 E8.25586
G1 X121.107 Y119.055 E8.28592
G1 X120.606 Y119.806 E8.31595
G1 X119.969 Y120.589 E8.34952
G1 X119.453 Y121.156 E8.37502
G1 X119.082 Y121.544 E8.39288
G1 X118.43 Y122.169 E8.42292
G1 X117.725 Y122.733 E8.45294
G1 X116.791 Y123.339 E8.48998
G1 X116.187 Y123.686 E8.51314
G1 X115.578 Y124.015 E8.53617
G1 X114.761 Y124.4 E8.56621
G1 X113.914 Y124.711 E8.59622
G1 X112.759 Y125.005 E8.63586
G1 X112.017 Y125.141 E8.66095
G1 F1500 E2.16095
;MESH:O Tremendo Jaban.stl
G0 F6000 X110.418 Y115.743
G0 X110 Y114.528
;TYPE:WALL-INNER
G1 F1500 E8.66095
G1 F1200 X110.628 Y114.421 E8.68213
G1 X111.326 Y114.04 E8.70858
G1 X111.885 Y113.435 E8.73598
G1 X112.251 Y112.664 E8.76437
G1 X112.377 Y111.8 E8.79341
G1 X112.251 Y110.936 E8.82245
G1 X111.885 Y110.16 E8.85099
G1 X111.326 Y109.556 E8.87836
G1 X110.628 Y109.175 E8.90481
G1 X109.863 Y109.045 E8.93062
G1 X109.096 Y109.175 E8.95649
G1 X108.403 Y109.556 E8.98279
G1 X107.84 Y110.164 E9.01035
G1 X107.473 Y110.94 E9.0389
G1 X107.347 Y111.799 E9.06778
G1 X107.477 Y112.664 E9.09687
G1 X107.84 Y113.435 E9.12522
G1 X108.402 Y114.04 E9.15268
G1 X109.096 Y114.421 E9.17901
G1 X109.863 Y114.551 E9.20489
G1 X110 Y114.528 E9.20951
G0 F6000 X110 Y114.934
;TYPE:WALL-OUTER
G1 F1200 X110.761 Y114.804 E9.23519
G1 X111.575 Y114.36 E9.26603
G1 X112.22 Y113.662 E9.29764
G1 X112.638 Y112.781 E9.33007
G1 X112.781 Y111.8 E9.36304
G1 X112.638 Y110.819 E9.39601
G1 X112.22 Y109.934 E9.42857
G1 X111.575 Y109.236 E9.46018
G1 X110.761 Y108.792 E9.49102
G1 X109.863 Y108.639 E9.52131
G1 X108.963 Y108.792 E9.55168
G1 X108.153 Y109.236 E9.5824
G1 X107.504 Y109.938 E9.6142
G1 X107.086 Y110.823 E9.64675
G1 X106.943 Y111.799 E9.67956
G1 X107.09 Y112.781 E9.71259
G1 X107.504 Y113.662 E9.74496
G1 X108.153 Y114.36 E9.77666
G1 X108.963 Y114.804 E9.80739
G1 X109.863 Y114.957 E9.83775
G1 X110 Y114.934 E9.84237
G0 F6000 X110 Y114.161
;TYPE:SKIN
G1 F1200 X109.861 Y114.185 E9.84706
G1 X109.215 Y114.072 E9.86887
G1 X108.625 Y113.751 E9.89121
G1 X108.14 Y113.23 E9.91489
G1 X107.822 Y112.557 E9.93964
G1 X107.711 Y111.797 E9.96519
G1 X107.822 Y111.043 E9.99054
G1 X108.14 Y110.366 E10.01542
G1 X108.625 Y109.844 E10.03912
G1 X109.215 Y109.52 E10.0615
G1 X109.861 Y109.411 E10.08329
G1 X110.509 Y109.52 E10.10515
G1 X111.099 Y109.845 E10.12755
G1 X111.584 Y110.362 E10.15113
G1 X111.898 Y111.039 E10.17595
G1 X112.013 Y111.801 E10.20158
G1 X111.902 Y112.557 E10.227
G1 X111.58 Y113.23 E10.25181
G1 X111.099 Y113.752 E10.27542
G1 X110.509 Y114.072 E10.29774
G1 X110 Y114.161 E10.31493
G0 F6000 X109.371 Y113.897
G1 F1200 X108.054 Y112.579 E10.3769
G0 F6000 X107.926 Y111.886
G1 F1200 X109.998 Y113.958 E10.47436
G0 F6000 X110.471 Y113.865
G1 F1200 X107.976 Y111.37 E10.59172
G0 F6000 X108.098 Y110.926
G1 F1200 X110.837 Y113.665 E10.72055
G0 F6000 X111.145 Y113.408
G1 F1200 X108.279 Y110.541 E10.85538
G0 F6000 X108.536 Y110.233
G1 F1200 X111.416 Y113.113 E10.99085
G0 F6000 X111.598 Y112.73
G1 F1200 X108.829 Y109.961 E11.1211
G0 F6000 X109.195 Y109.761
G1 F1200 X111.738 Y112.303 E11.24069
G0 F6000 X111.811 Y111.811
G1 F1200 X109.65 Y109.65 E11.34233
G0 F6000 X110.244 Y109.679
G1 F1200 X111.713 Y111.147 E11.41141
M104 S200
G1 F1500 E4.91141
;MESH:NONMESH
G0 F300 X111.713 Y111.147 Z0.4
G0 F6000 X112.17 Y111.081
G0 X112.215 Y111.8
G0 X112.095 Y112.616
G0 X111.816 Y113.206
G0 X110.687 Y114.589
G0 X110.871 Y115.666
G0 X111.433 Y125.232
;TIME_ELAPSED:24.359246
;LAYER:1
;note -- min layer time used
M106 S85
;TYPE:SKIRT
G1 F1500 E11.41141
G1 F1052.9 X110.536 Y125.332 E11.44143
G1 X109.633 Y125.351 E11.47147
G1 X108.305 Y125.234 E11.51581
G1 X107.556 Y125.114 E11.54104
G1 X107.035 Y125.017 E11.55866
G1 X106.155 Y124.812 E11.58872
G1 X105.297 Y124.531 E11.61875
G1 X104.193 Y124.037 E11.65897
G1 X103.511 Y123.674 E11.68467
G1 X103.009 Y123.388 E11.70389
G1 X102.245 Y122.906 E11.73393
G1 X101.526 Y122.359 E11.76398
G1 X100.719 Y121.609 E11.80062
G1 X100.247 Y121.12 E11.82323
G1 X99.761 Y120.588 E11.84719
G1 X99.187 Y119.891 E11.87722
G1 X98.677 Y119.145 E11.90728
G1 X98.195 Y118.275 E11.94036
G1 X97.857 Y117.578 E11.96612
G1 X97.635 Y117.089 E11.98399
G1 X97.299 Y116.251 E12.01402
G1 X97.038 Y115.387 E12.04403
G1 X96.867 Y114.578 E12.07154
G1 X96.739 Y113.823 E12.09701
G1 X96.644 Y113.159 E12.11932
G1 X96.566 Y112.259 E12.14936
G1 X96.568 Y111.356 E12.1794
G1 X96.639 Y110.54 E12.20664
G1 X96.725 Y109.865 E12.22927
G1 X96.832 Y109.16 E12.25299
G1 X97.014 Y108.275 E12.28304
G1 X97.273 Y107.41 E12.31307
G1 X97.538 Y106.727 E12.33744
G1 X97.835 Y106.066 E12.36154
G1 X98.182 Y105.355 E12.38785
G1 X98.614 Y104.562 E12.41789
G1 X99.114 Y103.81 E12.44792
G1 X99.723 Y103.056 E12.48016
G1 X100.263 Y102.458 E12.50696
G1 X100.655 Y102.049 E12.5258
G1 X101.308 Y101.425 E12.55584
G1 X102.014 Y100.862 E12.58588
G1 X102.931 Y100.267 E12.62223
G1 X103.52 Y99.928 E12.64484
G1 X104.145 Y99.59 E12.66847
G1 X104.962 Y99.205 E12.69851
G1 X105.809 Y98.893 E12.72853
G1 X106.937 Y98.604 E12.76726
G1 X107.706 Y98.461 E12.79328
G1 X108.287 Y98.37 E12.81284
G1 X109.184 Y98.27 E12.84286
G1 X110.087 Y98.249 E12.8729
G1 X110.988 Y98.309 E12.90293
G1 X111.446 Y98.37 E12.9183
G1 X112.195 Y98.492 E12.94354
G1 X112.704 Y98.587 E12.96076
G1 X113.584 Y98.792 E12.99081
G1 X114.442 Y99.074 E13.02085
G1 X115.588 Y99.59 E13.06265
G1 X116.229 Y99.934 E13.08685
G1 X116.709 Y100.207 E13.10522
G1 X117.473 Y100.688 E13.13524
G1 X118.192 Y101.234 E13.16527
G1 X118.992 Y101.976 E13.20156
G1 X119.489 Y102.489 E13.22532
G1 X119.972 Y103.015 E13.24907
G1 X120.545 Y103.713 E13.27911
G1 X121.054 Y104.459 E13.30914
G1 X121.531 Y105.319 E13.34185
G1 X121.859 Y105.996 E13.36687
G1 X122.093 Y106.512 E13.38572
G1 X122.43 Y107.351 E13.41579
G1 X122.69 Y108.215 E13.4458
G1 X122.86 Y109.015 E13.473
G1 X122.995 Y109.809 E13.49979
G1 X123.086 Y110.447 E13.52123
G1 X123.163 Y111.346 E13.55124
G1 X123.161 Y112.249 E13.58127
G1 X123.09 Y113.059 E13.60831
G1 X122.999 Y113.774 E13.63229
G1 X122.895 Y114.452 E13.6551
G1 X122.709 Y115.336 E13.68515
G1 X122.445 Y116.199 E13.71516
G1 X122.139 Y116.965 E13.7426
G1 X121.817 Y117.684 E13.7688
G1 X121.541 Y118.262 E13.7901
G1 X121.107 Y119.055 E13.82017
G1 X120.606 Y119.806 E13.8502
G1 X119.969 Y120.589 E13.88377
G1 X119.453 Y121.156 E13.90927
G1 X119.082 Y121.544 E13.92712
G1 X118.43 Y122.169 E13.95716
G1 X117.725 Y122.733 E13.98719
G1 X116.791 Y123.339 E14.02422
G1 X116.187 Y123.686 E14.04739
